X:104
T: Es war einmal ein kleiner Mann,
N: D0156
O: Europa, Mitteleuropa, Deutschland, Provinz Sachsen
N: Inzipit = entfernte Variante ??
R: Ehestands - Lied
M: 2/4
L: 1/8
K: G
D | GGGG | GDD2 |
G2A2 | B2G
G | BBBB | BGG2 |
AAAF | G3

@@@ Tune index: 2626
